X: 101146
T: John Clifford's #1
S: "Johnny O'Leary of Sliabh Luachra" (#109)
Z: B.Black
L: 1/8
M: 2/4
Q: 280
R: polka
K: G
G>A Bd|ef gf/g/|ed Bd|e/f/e/d/ BA|
G>A Bd|ef gf/g/|ed B/c/B/A/|G2 G2 :|
g>f ed|ef gf/g/|ed Bd|e/f/e/d/ Bd|
g>f ed|ef gf/g/|ed B/c/B/A/|G2 G2 :|
